X:734
M:C
L:1/8
K:D
|:d>AF>A d/c/B/A/ d2|e<E E>F G>AB>c|1 d>AF>A d/e/f/g/ ag|
f>dA>G F>DF>A:|2 d>fe>c d>BA>F|G<B A>c d<D d>f||

